X: 08079
T: MORLEY'S WEDDING
C: Bob McQuillen Apr 91
B: Bob's Note Book 8 #79
%R: march
Z: 2021 John Chambers <jc:trillian.mit.edu>
M: C
L: 1/4
K: D
|:"D"d>e fd | "G"BA B<d | "Em"e>f gf | "A7"ed BA |\
| "D"d>e fd | "G"BA B<d | "Em"g>f ed | "A7"BA A2 :|
|:"D"a>f df | "G"ed B<d | "D"A>B "Bm"df | "Em"af "A7"e2 |\
| "D"a>f df | "G"ed B<G | "Em"d>e fe/d/ | "A"BA A2 :|
%%begintext align
%% Perhaps you've
%% heard the tune "Mairi's Wedding"- it's been around a long
%% time, but it gave birth to this tune, which is brand
%% new, because it's celebrating Linda Morley's marriage
%% to Ormand Szainer on 21 April 91. Congratulations and
%% very best wishes to you both!
%%endtext
N: Bob seems to have spelled it "Mauri's Wedding", but I can't find any reference to that anywhere.

%%sep 1 1 500

%%sep 1 1 500

